icons/edit-geometry-24.svg

<svg id="icons" xmlns="http://www.w3.org/2000/svg" viewBox="0 0 24 24"><defs><style>.cls-1{fill:none;}</style></defs><path d="M9.167,20l-.42883,1H2V3.8l8.46155,5.6L22,1V7.81561a1.79431,1.79431,0,0,0-1,.02155V2.96484L10.48877,10.61719,3,5.66113V20ZM21,20H16.95435l-1.00007,1H22V14.95483l-1,.99994Zm2.68622-8.14545-10.32471,10.324L9.26532,23.93427a.37135.37135,0,0,1-.48761-.48761l1.75574-4.0962,10.309-10.309a.98.98,0,0,1,1.386,0l1.42817,1.42817A.96544.96544,0,0,1,23.68622,11.85455ZM12.557,21.43549l-1.28-1.28028-.96124,2.24036Zm8.24334-8.10987L19.38647,11.9115,11.9173,19.38141l1.41345,1.41376Zm1.86457-2.44537-.804-.83807a.41946.41946,0,0,0-.59918-.00617l-1.16827,1.1684,1.41388,1.41418L22.65887,11.467A.41931.41931,0,0,0,22.66492,10.88025Z"/><rect class="cls-1" width="24" height="24"/></svg>

<svg xmlns="http://www.w3.org/2000/svg" viewBox="0 0 24 24"><path d="M9.167 20l-.429 1H2V3.8l8.462 5.6L22 1v6.816a1.794 1.794 0 0 0-1 .021V2.965l-10.511 7.652L3 5.661V20zM21 20h-4.046l-1 1H22v-6.045l-1 1zm2.686-8.145L13.362 22.179l-4.097 1.755a.371.371 0 0 1-.487-.487l1.755-4.097 10.31-10.309a.98.98 0 0 1 1.385 0l1.429 1.429a.965.965 0 0 1 .03 1.385zm-11.129 9.58l-1.28-1.28-.961 2.24zm8.243-8.11l-1.414-1.413-7.469 7.47 1.414 1.413zm1.865-2.445l-.804-.838a.42.42 0 0 0-.6-.006l-1.168 1.168 1.414 1.415 1.152-1.152a.42.42 0 0 0 .006-.587z"/><path fill="none" d="M0 0h24v24H0z"/></svg>
